packages/icons/src/track-next.svg

<svg width="15" height="15" viewBox="0 0 15 15" fill="none" xmlns="http://www.w3.org/2000/svg">
  <path
    fill-rule="evenodd"
    clip-rule="evenodd"
    d="M13.0502 2.74989C13.0502 2.44613 12.804 2.19989 12.5002 2.19989C12.1965 2.19989 11.9502 2.44613 11.9502 2.74989V7.2825C11.9046 7.18802 11.8295 7.10851 11.7334 7.05776L2.73338 2.30776C2.5784 2.22596 2.3919 2.23127 2.24182 2.32176C2.09175 2.41225 2 2.57471 2 2.74995V12.25C2 12.4252 2.09175 12.5877 2.24182 12.6781C2.3919 12.7686 2.5784 12.7739 2.73338 12.6921L11.7334 7.94214C11.8295 7.89139 11.9046 7.81188 11.9502 7.7174V12.2499C11.9502 12.5536 12.1965 12.7999 12.5002 12.7999C12.804 12.7999 13.0502 12.5536 13.0502 12.2499V2.74989ZM3 11.4207V3.5792L10.4288 7.49995L3 11.4207Z"
    fill="currentColor"
  />
</svg>

<svg xmlns="http://www.w3.org/2000/svg" width="15" height="15" fill="none"><path fill="currentColor" fill-rule="evenodd" d="M13.05 2.75a.55.55 0 1 0-1.1 0v4.533a.5.5 0 0 0-.217-.225l-9-4.75A.5.5 0 0 0 2 2.75v9.5a.5.5 0 0 0 .733.442l9-4.75a.5.5 0 0 0 .217-.225v4.533a.55.55 0 0 0 1.1 0zM3 11.42V3.58l7.429 3.92z" clip-rule="evenodd"/></svg>
